assets/img/main/face.svg

<svg width="10" height="19" viewBox="0 0 10 19" fill="none" xmlns="http://www.w3.org/2000/svg">
<path d="M8.17432 3.15479H10V0.133792C9.68503 0.092625 8.60178 0 7.34022 0C4.70794 0 2.90476 1.57304 2.90476 4.46421V7.125H0V10.5022H2.90476V19H6.46613V10.503H9.2534L9.69586 7.12579H6.4653V4.79908C6.46613 3.82296 6.74277 3.15479 8.17432 3.15479Z" fill="white"/>
</svg>

<svg width="10" height="19" fill="none" xmlns="http://www.w3.org/2000/svg"><path d="M8.174 3.155H10V.134A24.8 24.8 0 007.34 0C4.708 0 2.905 1.573 2.905 4.464v2.661H0v3.377h2.905V19h3.561v-8.497h2.787l.443-3.377h-3.23V4.799c0-.976.277-1.644 1.708-1.644z" fill="#fff"/></svg>
